X:1
T:Title
%%score { ( 1 5 ) | ( 2 3 4 ) }
L:1/8
Q:1/4=120
M:6/4
K:C
V:1 treble nm="Church Organ"
V:5 treble 
V:2 bass 
V:3 bass 
V:4 bass 
V:1
 z6 z4 [F,A,D]2 | [A,DF]4 [CEG]2 [A,DF]4 [CE]2 | .[A,DF]4[K:bass] [A,C]2 [F,D]4[K:treble] [A,DF]2 | %3
 [DFA]4 [CFA]2 [CEG]4 [A,DF]2 | .[B,G]6 z6 | [DFA]4 [DF]2 [EGc]4 [CFA]2 | .[D_B]6 z6 | %7
 [DFA]4 [B,DG]2 [CEG]4 [A,DF]2 | .[B,G]6 z6 | .[DFA]4 [EGc]2 [FAc]4 [FAd]2 | %10
 .[DA]2 [B,B]4 [CA]4 [Ec]2 | [EGB]4 [CA]2 [Bd]3- [FBd] c2 | z2 B4 z6 | z6 .c6 | %14
 [EGc]2 [DFA]4 [^CEA]4 [=CEG]2 | [DGA]4 [CFA]2 [CEG]4 [A,DF]2 | .[B,G]6[K:bass] z6 |] %17
V:2
 z6 z4 D,2 | D,4 C,2 D,4 A,2 | z2 E4 z6 | D,4 F,2 C,4 D,2 | .G,,4 ^C2 D,4 D,2 | %5
 z2 z F D,2 z2 z[K:treble] _B[K:bass] F,2 | z2 z G3- G z z2 z2 | D,4 G,,2 z2 z _B, D,2 | %8
 .G,,4 C2 D,4 D,2 | z2[K:treble] _B2[K:bass] C,2 F,4 D,2 | .F,4 ^G2 A,,4 A,2 | E,4 F,2 G,4 [A,A]2 | %12
 [F,D]2 [E,B,]4 A,,4 D,2 | A,,4 [E,B,E]2 [F,A,C]4 z D | C,2 D,4 A,,4 C,2 | z6 z2 z ._B,3 | %16
 .G,,4 ^C2 .D,6 |] %17
V:3
 x12 | x12 | .D,6 D,4 D,2 | x12 | z2 A,,4 z6 | .D,6 .C,6[K:treble][K:bass] | ._B,,4 E2 F,,4 D,2 | %7
 z6 .C,6 | z2 A,,4 z6 | .D,6[K:treble][K:bass] z6 | z2 E,4 z6 | x12 | x12 | z6 z4 F,2 | x12 | %15
 z6 .C,6 | z2 A,,4 z6 |] %17
V:4
 x12 | x12 | z4 A,,2- A,,2 z2 z2 | x12 | x12 | x9[K:treble] x[K:bass] x2 | z2 C,4 z6 | x12 | x12 | %9
 x2[K:treble] x2[K:bass] x8 | x12 | x12 | x12 | x12 | x12 | G,,4 A,,2 z4 D,2 | x12 |] %17
V:5
 x12 | x12 | x4[K:bass] x6[K:treble] x2 | x12 | .D2- .[A,DE]4 [F,D]4 [A,DF]2 | x12 | %6
 .F2- .[CF]4 [A,F]4 [DFA]2 | x12 | .D2- .[A,D]4 [F,D]4 [A,DF]2 | x12 | x12 | z6 .G6 | %12
 .A4 ^G2 [CA]4 [A,FA]2 | [CEA]4 G2 z2 z B, .[CAc]2 | x12 | x12 | .D2- .[A,DE]4[K:bass] .[F,D]6 |] %17

